src/static/provided/logos/blueprint.svg

<svg width="256px" height="298px" viewBox="0 0 256 298" xmlns="http://www.w3.org/2000/svg" preserveAspectRatio="xMidYMid"><path fill="#00b46f" d="M192 112.384l64 37.942857V224.768l-64 36.48-64-36.48v-74.422857"/><g style="fill:#2294d9"><path d="M128 0l64 37.9428571V112.384l-64 36.48-64-36.48V37.9611429"/><path d="M192 37.9428571l64 37.9428572V150.336l-64 36.48-64-36.48V75.8857143"/></g><g style="fill:#f85551"><path d="M64 37.9428571l64 37.9428572V150.336l-64 36.48-64-36.48V75.8857143"/><path d="M64 112.384l64 37.942857V224.768l-64 36.48-64-36.48v-74.422857"/></g><path fill="#00b46f" d="M128 148.873143 192 186.816v74.441143l-64 36.48-64-36.48V186.816"/><path d="M192 37.9428571l-64 37.9428572-64-37.9428572L128 0l64 37.9428571zm64 37.9428572-64 37.9611427L128 75.904l64-37.9428571L256 75.904v-.0182857z" fill="#30b2e9"/><path fill="#00ab64" d="M128 223.305143v-74.422857l-64 37.942857V261.248"/><path fill="#00ce8e" d="M192 186.816l-64 36.48-64-36.48 64-37.942857"/><path fill="#00c783" d="M128 223.305143l-64-36.48 64-37.942857z"/><path fill="#2caee7" d="M128 75.8857143 64 37.9428571 128 0z"/><path fill="#fb716c" d="M128 75.8857143 64 113.846857 0 75.904l64-37.9428571"/><path fill="#1f8ed6" d="M256 150.336l-64 36.48-64-37.942857L192 113.856"/><path fill="#f64743" d="M63.0125714 260.626286 0 224.146286l63.0125714-37.961143v74.441143z"/><path fill="#f96560" d="M64 113.846857V37.9611429L128 75.904v72.96"/><path fill="#b71d1d" d="M128 148.873143V75.8857143L64 113.846857v72.96"/><path fill="#b21a1a" d="M128 148.873143 64 113.856l64-37.9702857z"/><path fill-opacity="0.2" fill="#10161a" d="M256 224.768l-64-37.942857 64-36.48V224.768z"/><path d="M192 261.257143V186.816l-64 36.48v74.450286l64-36.48v-.009143zm64-36.48V150.336l-64 36.48v74.441143l64-36.48z" fill="#007233"/><path fill="#00682c" d="M256 224.768l-64-37.942857 64-36.48V224.768z"/><path fill="#0759ba" d="M256 150.336V75.8857143l-64 37.9611427v72.96"/><path fill="#0860bf" d="M256 150.336l-64-36.48 64-37.9702857z"/><path d="M0 75.8857143 64 112.384l64-36.48-62.5371429 38.674286L64 186.514286c0 .027428 0 0 0 0L62.5371429 114.56 0 75.8857143z" fill="#febcb7" opacity="0.78"/><path fill="#4edcf8" opacity="0.78" d="M128 75.8857143 192 112.384l64-36.48-62.537143 38.674286L192 186.806857l-1.462857-72.228571"/><path d="M64 186.816l64 35.035429L192 186.816l-62.537143 37.211429L128 297.691429c0 .027428 0 0 0 0l-1.462857-73.654858L64 186.825143V186.816z" fill="#00f3c9" opacity="0.78"/></svg>

<svg width="256" height="298" xmlns="http://www.w3.org/2000/svg" preserveAspectRatio="xMidYMid"><path fill="#00B46F" d="M192 112.384l64 37.943v74.441l-64 36.48-64-36.48v-74.423"/><path fill="#2294D9" d="M128 0l64 37.943v74.441l-64 36.48-64-36.48V37.961"/><path fill="#2294D9" d="M192 37.943l64 37.943v74.45l-64 36.48-64-36.48v-74.45"/><path fill="#F85551" d="M64 37.943l64 37.943v74.45l-64 36.48-64-36.48v-74.45"/><path fill="#F85551" d="M64 112.384l64 37.943v74.441l-64 36.48-64-36.48v-74.423"/><path fill="#00B46F" d="M128 148.873l64 37.943v74.441l-64 36.48-64-36.48v-74.441"/><path d="M192 37.943l-64 37.943-64-37.943L128 0l64 37.943zm64 37.943l-64 37.96-64-37.942 64-37.943 64 37.943v-.018z" fill="#30B2E9"/><path fill="#00AB64" d="M128 223.305v-74.423l-64 37.943v74.423"/><path fill="#00CE8E" d="M192 186.816l-64 36.48-64-36.48 64-37.943"/><path fill="#00C783" d="M128 223.305l-64-36.48 64-37.943z"/><path fill="#2CAEE7" d="M128 75.886L64 37.943 128 0z"/><path fill="#FB716C" d="M128 75.886l-64 37.96L0 75.905l64-37.943"/><path fill="#1F8ED6" d="M256 150.336l-64 36.48-64-37.943 64-35.017"/><path fill="#F64743" d="M63.013 260.626L0 224.146l63.013-37.96v74.44z"/><path fill="#F96560" d="M64 113.847V37.96l64 37.943v72.96"/><path fill="#B71D1D" d="M128 148.873V75.886l-64 37.96v72.96"/><path fill="#B21A1A" d="M128 148.873l-64-35.017 64-37.97z"/><path fill-opacity=".2" fill="#10161A" style="mix-blend-mode:soft-light" d="M256 224.768l-64-37.943 64-36.48v74.423z"/><path d="M192 261.257v-74.441l-64 36.48v74.45l64-36.48v-.009zm64-36.48v-74.441l-64 36.48v74.441l64-36.48z" fill="#007233"/><path fill="#00682C" d="M256 224.768l-64-37.943 64-36.48v74.423z"/><path fill="#0759BA" d="M256 150.336v-74.45l-64 37.96v72.96"/><path fill="#0860BF" d="M256 150.336l-64-36.48 64-37.97z"/><path d="M0 75.886l64 36.498 64-36.48-62.537 38.674L64 186.514c0 .028 0 0 0 0l-1.463-71.954L0 75.886z" fill="#FEBCB7" opacity=".78"/><path fill="#4EDCF8" opacity=".78" d="M128 75.886l64 36.498 64-36.48-62.537 38.674L192 186.807l-1.463-72.229"/><path d="M64 186.816l64 35.035 64-35.035-62.537 37.211L128 297.691c0 .028 0 0 0 0l-1.463-73.654L64 186.825v-.009z" fill="#00F3C9" opacity=".78"/></svg>
